!!!OTL: Die verunglueckte Muellerstochter Mueller Meister, tut ansehen,
!!!ARE: Europa, Mitteleuropa, Oesterreich, Steiermark
!!!YOR: 5, S. 191
!!    ????
!!!SCT: Q0106B
!!!YEM: Copyright 1995, estate of Helmut Schaffrath.
**kern
*ICvox
*Ivox
*M4/4
*k[f#]
*G:
{8g
8a
=1
4b
4b
8b
8dd
8cc
8b
=2
8b
8a
4a
4r}
{8a
8b
=3
4cc
4cc
8cc
8ee
8dd
8cc
=4
8cc
8b
4b
4r}
{8b
8cc
=5
4dd
8dd
8dd
8ee
8cc
8gg
8ee
=6
4.ee
8dd
4dd}
{8b
8b
=7
8.b
16a
4a
8a
8ee
8dd
8cc
=8
4.cc
8b
4b}
==
!!!AGN: Ballade, Unfall, Tod
!!!ONB: ESAC (Essen Associative Code) Database: BALLADE
!!!AMT: simple quadruple
!!!AIN: vox
!!!EED: Helmut Schaffrath
!!!EEV: 1.0
*-
